X: 10763
T: Dr. MacPhail's
R: reel
M: 4/4
K: Gmajor
B2 dG ~G2 ed|egde gd{a/}ed|!slide!B2 de GBed|egde gGBA|
B2 dG ~G2 ed|egde gd{a/}ed|!slide!B2 dG~G2 ed|egde gGBA|
Bddg Bdge|dBBd e/g3/2ed|Bddg Bdgd|{a/}edde gGBA|
Bddg Bdge|dBBd e/g3/2ed|JB2 dG GBed|e/g3/2de gGBA||
|:GddB deBd|Ae{a/}ed e/g3/2ed|GddB deBd|egde gGBA:|
|:JB2 dg ceBd|c2 e/g3/2 d/g3/2ed|1 JB2 dg ceBd|
e/g3/2de gGBA:|2 B2 dG G2 ed|e/g3/2de gGBA||

